svgs/sharp-regular/bus-school.svg

<svg xmlns="http://www.w3.org/2000/svg" viewBox="0 0 512 512"><!--! Font Awesome Pro 6.6.0 by @fontawesome - https://fontawesome.com License - https://fontawesome.com/license (Commercial License) Copyright 2024 Fonticons, Inc. --><path d="M96 96l80 0 0-16 160 0 0 16 80 0 0-2c-11.6-14.2-51.7-46-160-46c-55.9 0-95.6 9.9-122 21.5c-21.1 9.2-32.7 19-38 24.8L96 96zm0 48l0 80 136 0 0-80L96 144zm320 80l0-80-136 0 0 80 136 0zM464 86.6l0 41.4 48 0 0 128-16 0 0 168 0 24-24 0-24 0 0 40 0 24-48 0 0-24 0-40-288 0 0 40 0 24-48 0 0-24 0-40-24 0-24 0 0-24 0-168L0 256 0 128l48 0 0-41.4 0-6.3 3.1-5.5c9.4-16.7 31.2-35.2 63.7-49.4C148 10.9 194.5 0 256 0C386.6 0 443.3 43.4 460.9 74.9l3.1 5.5 0 6.3zM64 400l48 0 288 0 48 0 0-128-32 0L96 272l-32 0 0 128zm48-64a32 32 0 1 1 64 0 32 32 0 1 1 -64 0zm224 0a32 32 0 1 1 64 0 32 32 0 1 1 -64 0z"/></svg>

<svg xmlns="http://www.w3.org/2000/svg" viewBox="0 0 512 512"><!--! Font Awesome Pro 6.5.2 by @fontawesome - https://fontawesome.com License - https://fontawesome.com/license (Commercial License) Copyright 2024 Fonticons, Inc. --><path d="M96 96h80V80l160 0V96h80V94c-11.6-14.2-51.7-46-160-46c-55.9 0-95.6 9.9-122 21.5c-21.1 9.2-32.7 19-38 24.8V96zm0 48v80H232V144H96zm320 80V144H280v80H416zM464 86.6V128h48V256H496V424v24H472 448v40 24H400V488 448H112v40 24H64V488 448H40 16V424 256H0V128H48V86.6 80.4l3.1-5.5c9.4-16.7 31.2-35.2 63.7-49.4C148 10.9 194.5 0 256 0C386.6 0 443.3 43.4 460.9 74.9l3.1 5.5v6.3zM64 400h48H400h48V272H416 96 64V400zm48-64a32 32 0 1 1 64 0 32 32 0 1 1 -64 0zm224 0a32 32 0 1 1 64 0 32 32 0 1 1 -64 0z"/></svg>
